!!!COM: Gaspar van Weerbeke
!!!CDT: ~1450-~1517
!!!OPR: Missa octavi toni
!!!OTL: Agnus
!!!OMV: 5
!!!AGN: Mass
!!!SCT: Gas0204e
!!!SCA: Gas0204e
!!!voices: 4
**kern	**text	**kern	**text	**kern	**text	**kern	**text
*part4	*part4	*part3	*part3	*part2	*part2	*part1	*part1
*staff4	*staff4	*staff3	*staff3	*staff2	*staff2	*staff1	*staff1
*I"Bassus	*	*I"Tenor	*	*I"Altus	*	*I"Superius	*
*I'B	*	*I'T	*	*I'A	*	*I'S	*
*clefF4	*	*clefGv2	*	*clefGv2	*	*clefG2	*
*k[]	*	*k[]	*	*k[]	*	*k[]	*
*M3/2	*	*M3/2	*	*M3/2	*	*M3/2	*
*met(O)	*	*met(O)	*	*met(O)	*	*met(O)	*
=1	=1	=1	=1	=1	=1	=1	=1
2%3r	.	1.G	A-	2%3r	.	1.g	A-
=2	=2	=2	=2	=2	=2	=2	=2
1.r	.	2.c	.	1.r	.	2.e	.
.	.	4A	.	.	.	4f	.
.	.	2B	-gnus	.	.	2g	-gnus
=3	=3	=3	=3	=3	=3	=3	=3
1.r	.	4.A	De-	1.r	.	4f	.
.	.	.	.	.	.	2a	De-
.	.	8B	.	.	.	.	.
.	.	4c	.	.	.	.	.
.	.	2d	.	.	.	8gL	.
.	.	.	.	.	.	8fJ	.
.	.	.	.	.	.	2e	.
.	.	4c#i	.	.	.	.	.
=4	=4	=4	=4	=4	=4	=4	=4
1.r	.	2d	-i,	1.r	.	2d	-i,
*	*	*	*edit	*	*	*	*edit
.	.	4B	A-	.	.	4g	A-
.	.	4c	.	.	.	4a	.
.	.	4A	.	.	.	4cc	.
.	.	[4d	.	.	.	[4b	.
=5	=5	=5	=5	=5	=5	=5	=5
1.r	.	4d]	.	1.r	.	8bL]	.
.	.	.	.	.	.	8a	.
.	.	4B	.	.	.	8g	.
.	.	.	.	.	.	8fJ	.
.	.	4c	.	.	.	4e	.
.	.	4A	.	.	.	4f	.
.	.	4.G	.	.	.	2g	.
.	.	8A	.	.	.	.	.
!!LO:LB:g=original
=6	=6	=6	=6	=6	=6	=6	=6
1.r	.	4c	.	1.r	.	4e	.
.	.	4.B	.	.	.	2d	.
.	.	8AL	.	.	.	.	.
.	.	8G	.	.	.	4B	.
.	.	8FJ	.	.	.	.	.
.	.	4E	.	.	.	4c	.
.	.	4F	.	.	.	4A	.
=7	=7	=7	=7	=7	=7	=7	=7
1.r	.	2G	-gnus	1.r	.	4G	.
.	.	.	.	.	.	2d	-gnus
.	.	4F	De-	.	.	.	.
.	.	4G	.	.	.	2g	De-
.	.	2A	.	.	.	.	.
.	.	.	.	.	.	4f#i	.
=8	=8	=8	=8	=8	=8	=8	=8
*	*	*	*	*lig	*	*	*
*	*edit	*	*	*	*	*	*
1G	Qui	1G	-i,	2.G	Qui	2g	-i,
.	.	.	.	.	.	2r	.
.	.	.	.	2B	.	.	.
*	*	*	*	*	*	*	*Xedit
2E	.	2r	.	.	.	2g	qui
.	.	.	.	4c	.	.	.
*	*	*	*	*Xlig	*	*	*
=9	=9	=9	=9	=9	=9	=9	=9
1D	tol-	[1.A	qui	2d	tol-	4.f	tol-
.	.	.	.	.	.	8g	.
.	.	.	.	2f	.	4.a	.
.	.	.	.	.	.	8b	.
2AA	-lis	.	.	2e	-lis	2cc	-lis
=10	=10	=10	=10	=10	=10	=10	=10
*lig	*	*	*	*	*	*	*
*	*	*	*	*	*edit	*	*
2D	pec-	1A]	.	4.d	pec-	4r	.
.	.	.	.	.	.	4dd	pec-
.	.	.	.	8c	.	.	.
2.F	.	.	.	4A	.	4cc	-ca-
.	.	.	.	4D	.	2a	.
.	.	4c	tol-	4.A	-ca-	.	.
*Xlig	*	*	*	*	*	*	*
4D	.	4d	.	.	.	4f	.
.	.	.	.	8B	.	.	.
!!LO:LB:g=original
=11	=11	=11	=11	=11	=11	=11	=11
2C	-ca-	2e	-lis	2c	-ta	4g	.
.	.	.	.	.	.	4e	.
4D	.	4d	pec-	4A	.	4f	.
4F	.	2d	-ca-	2A	mun-	4d	.
2E	-ta	.	.	.	.	2g	-ta
.	.	4c#i	.	4G	.	.	.
=12	=12	=12	=12	=12	=12	=12	=12
*lig	*	*	*	*lig	*	*lig	*
2D	mun-	2.d	-ta	2A	-di,	2f	mun-
2G	.	.	.	2B	.	2g	.
.	.	8cL	.	.	.	.	.
.	.	8BJ	.	.	.	.	.
*Xlig	*	*	*	*Xlig	*	*Xlig	*
4F	.	2A	.	4c	pec-	4.a	.
4D	.	.	.	4d	.	.	.
.	.	.	.	.	.	8g	.
=13	=13	=13	=13	=13	=13	=13	=13
4F	.	4D	mun-	4A	-ca-	4f	.
2C	.	2G	.	4G	.	2e	.
.	.	.	.	4c	.	.	.
4D	.	4F	.	4B	.	2d	.
2AA	.	2E	-di,	[2A	-ta	.	.
.	.	.	.	.	.	4c#i	.
=14	=14	=14	=14	=14	=14	=14	=14
2D	-di,	4r	.	2A]	.	4d	.
.	.	2d	mun-	.	.	4.f	.
4r	.	.	.	4D	mun-	.	.
.	.	.	.	.	.	8g	.
4AA	mun-	4c	.	4E	.	2a	.
2E	.	2B	-di,	4G	.	.	.
.	.	.	.	[4E	-di,	4g#i	.
=15	=15	=15	=15	=15	=15	=15	=15
2AA	-di,	4r	.	4E]	.	2a	-di:
.	.	2A	pec-	4e	pec-	.	.
2r	.	.	.	4f	-ca-	2r	.
.	.	4G	-ca-	4e	-ta	.	.
2A	pec-	4F	.	2d	mun-	2r	.
.	.	4D	.	.	.	.	.
!!LO:LB:g=original
=16	=16	=16	=16	=16	=16	=16	=16
4G	-ca-	4E	.	4c	.	1.r	.
4F	.	2D	-ta	4d	-di:	.	.
4D	.	.	.	2r	.	.	.
4E	.	4G	mun-	.	.	.	.
2D	-ta	4F	.	2r	.	.	.
.	.	4A	.	.	.	.	.
=17	=17	=17	=17	=17	=17	=17	=17
4r	.	4G	.	1.r	.	1.r	.
4G	mun-	4E	.	.	.	.	.
4F	.	2D	-di,	.	.	.	.
4A	.	.	.	.	.	.	.
4G	.	4r	.	.	.	.	.
4E	.	4c	pec-	.	.	.	.
=18	=18	=18	=18	=18	=18	=18	=18
2D	-di,	4B	.	1.r	.	1.r	.
.	.	2d	-ca-	.	.	.	.
4r	.	.	.	.	.	.	.
4C	pec-	4e	.	.	.	.	.
4BB	.	4d	.	.	.	.	.
[4D	-ca-	[4B	-ta	.	.	.	.
=19	=19	=19	=19	=19	=19	=19	=19
4D]	.	4B]	.	1.r	.	2r	.
4E	.	4G	.	.	.	.	.
4D	.	4A	.	.	.	2r	.
2BB	-ta	4B	.	.	.	.	.
.	.	2G	.	.	.	4g	mi-
4GG	mun-	.	.	.	.	4b	.
=20	=20	=20	=20	=20	=20	=20	=20
4AA	.	4E	.	1.r	.	4cc	-se-
*	*	*lig	*	*	*	*	*
4BB	.	2D	mun-	.	.	2dd	-re-
*lig	*	*	*	*	*	*	*
2GG	-di:	.	.	.	.	.	.
.	.	2G	.	.	.	4b	.
2D	.	.	.	.	.	2a	-re
*Xlig	*	*Xlig	*	*	*	*	*
.	.	4F#i	.	.	.	.	.
=21	=21	=21	=21	=21	=21	=21	=21
*	*	*	*	*	*Xedit	*	*edit
1.r	.	4G	-di:	2G	mi-	2g	no-
.	.	4B	mi-	.	.	.	.
.	.	4c	-se-	4A	-se-	4e	.
.	.	4.d	-re-	4D	-re-	4f	.
.	.	.	.	2G	-re	4d	.
.	.	8c	.	.	.	.	.
.	.	4B	.	.	.	[4g	.
!!LO:PB:g=original
=22	=22	=22	=22	=22	=22	=22	=22
*	*	*	*	*	*edit	*	*
1.r	.	2A	-re	4c	no-	4g]	.
.	.	.	.	4e	.	4c	.
.	.	4r	.	4d	.	4B	.
.	.	2d	no-	2g	.	4G	.
.	.	.	.	.	.	2A	.
.	.	4c	.	4f#i	.	.	.
=23	=23	=23	=23	=23	=23	=23	=23
1.r	.	4B	-bis,	2g	-bis,	2G	-bis,
.	.	4.d	mi-	.	.	.	.
.	.	.	.	4.d	mi-	2r	.
.	.	8cL	.	.	.	.	.
.	.	8B	.	.	.	.	.
.	.	8AJ	.	8c	.	.	.
.	.	8dL	-se-	8BL	.	2r	.
.	.	8c	.	8AJ	.	.	.
.	.	8B	.	8dL	-se-	.	.
.	.	8AJ	.	8cJ	.	.	.
=24	=24	=24	=24	=24	=24	=24	=24
1.r	.	4G	.	8BL	.	4.d	mi-
.	.	.	.	8AJ	.	.	.
.	.	4d	-re-	4B	.	.	.
.	.	.	.	.	.	8e	.
.	.	4c	.	4A	.	4f	.
.	.	4B	.	2G	-re-	4g	-se-
.	.	2A	.	.	.	4a	-re-
.	.	.	.	4F#i	.	4cc	.
=25	=25	=25	=25	=25	=25	=25	=25
1.r	.	4G	-re	4G	-re	4b	.
*	*	*	*	*	*Xedit	*	*
.	.	4D	no-	4d	no-	2a	-re
.	.	4F	.	4c	.	.	.
*	*	*	*	*	*	*	*Xedit
.	.	4G	.	4B	.	2g	no-
.	.	2D	.	2A	.	.	.
.	.	.	.	.	.	4f#i	.
=26	=26	=26	=26	=26	=26	=26	=26
*	*v:[no-]	*	*	*	*	*	*
1GGl	bis.	1Dl	-bis.	1Gl	-bis.	1gl	-bis.
!!LO:LB:g=original
=27||	=27||	=27||	=27||	=27||	=27||	=27||	=27||
*M2/2	*	*M2/2	*	*M2/2	*	*M2/2	*
*met(C|)	*	*met(C|)	*	*met(C|)	*	*met(C|)	*
1r	.	1r	.	[1G	A-	1g	A-
=28	=28	=28	=28	=28	=28	=28	=28
1r	.	1r	.	2G]	.	2.b	-gnus
.	.	.	.	2E	-gnus	.	.
.	.	.	.	.	.	4g	.
=29	=29	=29	=29	=29	=29	=29	=29
*	*	*	*	*	*	*lig	*
*	*	*	*	*	*	*	*edit
1r	.	1r	.	2F	De-	2a	De-
.	.	.	.	[2G	-i,	2b	.
*	*	*	*	*	*	*Xlig	*
=30	=30	=30	=30	=30	=30	=30	=30
1r	.	1r	.	2G]	.	1g	-i,
*	*	*	*	*	*edit	*	*
.	.	.	.	2e	A-	.	.
=31	=31	=31	=31	=31	=31	=31	=31
*	*	*	*	*lig	*	*lig	*
1r	.	1r	.	2f	.	2a	A-
.	.	.	.	2g	.	2b	.
*	*	*	*	*Xlig	*	*Xlig	*
=32	=32	=32	=32	=32	=32	=32	=32
*	*	*	*	*lig	*	*	*
1r	.	1r	.	2e	.	2cc	.
.	.	.	.	2f	.	[2dd	.
*	*	*	*	*Xlig	*	*	*
=33	=33	=33	=33	=33	=33	=33	=33
1r	.	1r	.	2d	-gnus	4dd]	.
.	.	.	.	.	.	4cc	.
.	.	.	.	[2g	De-	4b	.
.	.	.	.	.	.	4a	.
=34	=34	=34	=34	=34	=34	=34	=34
1r	.	1r	.	4g]	.	1g	-gnus
.	.	.	.	4f	.	.	.
.	.	.	.	4e	.	.	.
.	.	.	.	4d	.	.	.
=35	=35	=35	=35	=35	=35	=35	=35
*	*	*	*	*lig	*	*lig	*
*	*	*	*	*	*	*	*Xedit
1r	.	1r	.	2c	.	2e	De-
.	.	.	.	[2d	.	2f	.
*	*	*	*	*Xlig	*	*Xlig	*
!!LO:LB:g=original
=36	=36	=36	=36	=36	=36	=36	=36
*	*	*	*Xedit	*	*	*	*
1r	.	1G	A-	4d]	.	1d	-i,
.	.	.	.	4c	.	.	.
.	.	.	.	4B	.	.	.
.	.	.	.	4A	.	.	.
=37	=37	=37	=37	=37	=37	=37	=37
2.G	A-	2.B	-gnus	1G	-i,	1r	.
4E	.	4G	.	.	.	.	.
=38	=38	=38	=38	=38	=38	=38	=38
*	*	*lig	*	*	*	*	*
2F	.	2A	De-	1r	.	1r	.
[2G	-gnus	2B	.	.	.	.	.
=39	=39	=39	=39	=39	=39	=39	=39
2G]	.	1G	-i,	1r	.	1r	.
2E	.	.	.	.	.	.	.
*	*	*Xlig	*	*	*	*	*
=40	=40	=40	=40	=40	=40	=40	=40
*lig	*	*	*	*	*	*	*
*	*	*	*edit	*	*	*	*
2F	De-	2A	A-	1r	.	1r	.
2G	.	2B	.	.	.	.	.
*Xlig	*	*	*	*	*	*	*
=41	=41	=41	=41	=41	=41	=41	=41
*lig	*	*lig	*	*	*	*	*
2E	.	2c	.	1r	.	1r	.
2F	.	[2d	.	.	.	.	.
*Xlig	*	*Xlig	*	*	*	*	*
=42	=42	=42	=42	=42	=42	=42	=42
2D	-i,	4d]	.	1r	.	1r	.
.	.	4c	.	.	.	.	.
[2G	A-	4B	.	.	.	.	.
.	.	4A	.	.	.	.	.
=43	=43	=43	=43	=43	=43	=43	=43
4G]	.	1G	-gnus	1r	.	1r	.
4F	.	.	.	.	.	.	.
4E	.	.	.	.	.	.	.
4D	.	.	.	.	.	.	.
=44	=44	=44	=44	=44	=44	=44	=44
*	*	*lig	*	*	*	*	*
2C	-gnus	2E	De-	1r	.	1r	.
[2D	De-	2F	.	.	.	.	.
*	*	*Xlig	*	*	*	*	*
!!LO:LB:g=original
=45	=45	=45	=45	=45	=45	=45	=45
4D]	.	2.D	.	1r	.	1r	.
4C	.	.	.	.	.	.	.
2BB	.	.	.	.	.	.	.
.	.	4E	.	.	.	.	.
=46	=46	=46	=46	=46	=46	=46	=46
2AA	.	4F	.	1r	.	1r	.
.	.	8GL	.	.	.	.	.
.	.	8AJ	.	.	.	.	.
2GG	.	2B-j	.	.	.	.	.
=47	=47	=47	=47	=47	=47	=47	=47
*lig	*	*	*	*	*	*	*
2C	.	2A	.	1r	.	1r	.
2BB	.	[2G	.	.	.	.	.
*Xlig	*	*	*	*	*	*	*
=48	=48	=48	=48	=48	=48	=48	=48
1AA	.	2G]	.	1r	.	1r	.
.	.	2F#i	.	.	.	.	.
=49	=49	=49	=49	=49	=49	=49	=49
1GG	-i,	1G	-i,	1r	.	2.d	qui
.	.	.	.	.	.	4e	.
=50	=50	=50	=50	=50	=50	=50	=50
*	*	*	*	*	*Xedit	*	*
2r	.	1r	.	1d	qui	4f	.
.	.	.	.	.	.	8gL	.
.	.	.	.	.	.	8aJ	.
*	*Xedit	*	*	*	*	*	*
2G	qui	.	.	.	.	2b-j	.
=51	=51	=51	=51	=51	=51	=51	=51
4A	tol-	1r	.	2c	tol-	2a	.
4F	.	.	.	.	.	.	.
2G	.	.	.	2B	.	[2g	tol-
=52	=52	=52	=52	=52	=52	=52	=52
1D	.	1r	.	1A	-lis,	2g]	.
.	.	.	.	.	.	2f#i	.
=53	=53	=53	=53	=53	=53	=53	=53
*	*	*	*Xedit	*	*edit	*	*
1GG	-lis	1d	qui	1G	qui	1g	-lis
!!LO:PB:g=original
=54	=54	=54	=54	=54	=54	=54	=54
*	*	*	*	*lig	*	*	*
1r	.	2.d	tol-	2D	tol-	1r	.
.	.	.	.	[2F	.	.	.
.	.	4c	.	.	.	.	.
*	*	*	*	*Xlig	*	*	*
=55	=55	=55	=55	=55	=55	=55	=55
1r	.	4A	.	4F]	.	1r	.
.	.	4B	.	4G	.	.	.
.	.	2c	.	4A	.	.	.
.	.	.	.	4B	.	.	.
=56	=56	=56	=56	=56	=56	=56	=56
1r	.	1F	-lis	2c	-lis	1r	.
.	.	.	.	2d	pec-	.	.
=57	=57	=57	=57	=57	=57	=57	=57
*	*	*	*edit	*	*	*	*
1r	.	2E	pec-	2e	-ca-	1r	.
.	.	4F	-ca-	4d	.	.	.
.	.	4D	.	[4f	-ta	.	.
=58	=58	=58	=58	=58	=58	=58	=58
1r	.	4F	.	4f]	.	1r	.
.	.	4G	.	2d	mun-	.	.
.	.	2E	.	.	.	.	.
.	.	.	.	4c#i	.	.	.
=59	=59	=59	=59	=59	=59	=59	=59
1r	.	1D	-ta,	1d	-di,	1r	.
=60	=60	=60	=60	=60	=60	=60	=60
*	*	*	*Xedit	*	*	*	*
1r	.	2d	pec-	2B	mun-	1r	.
.	.	4.B	-ca-	2d	.	.	.
.	.	8c	.	.	.	.	.
=61	=61	=61	=61	=61	=61	=61	=61
1r	.	2d	-ta	2G	-di,	1r	.
*	*	*	*edit	*	*	*	*
.	.	4G	mun-	4r	.	.	.
.	.	8AL	.	4d	pec-	.	.
.	.	8BJ	.	.	.	.	.
!!LO:LB:g=original
=62	=62	=62	=62	=62	=62	=62	=62
1r	.	4c	.	4e	-ca-	1r	.
.	.	8BL	.	4f	.	.	.
.	.	8AJ	.	.	.	.	.
.	.	2G	-di,	4g	.	.	.
.	.	.	.	[4d	-ta	.	.
=63	=63	=63	=63	=63	=63	=63	=63
1r	.	4r	.	4d]	.	1r	.
.	.	4D	pec-	4B	.	.	.
*	*	*	*	*col	*	*	*
.	.	4.E	-ca-	4.c	mun-	.	.
.	.	8F	.	8A	.	.	.
*	*	*	*	*Xcol	*	*	*
=64	=64	=64	=64	=64	=64	=64	=64
*	*edit	*	*	*	*	*	*
2GG	pec-	4.G	.	2G	-di.	1r	.
.	.	8A	.	.	.	.	.
4D	-ca-	8BL	.	2r	.	.	.
.	.	8AJ	.	.	.	.	.
4E	.	[4c	.	.	.	.	.
=65	=65	=65	=65	=65	=65	=65	=65
2F	.	8cL]	.	1r	.	1r	.
.	.	8B	.	.	.	.	.
.	.	8A	.	.	.	.	.
.	.	8GJ	.	.	.	.	.
4G	.	4B	.	.	.	.	.
[4D	-ta	[4A	-ta	.	.	.	.
=66	=66	=66	=66	=66	=66	=66	=66
4D]	.	4A]	.	1r	.	1r	.
*	*	*	*Xedit	*	*	*	*
4BB	.	2G	mun-	.	.	.	.
2AA	mun-	.	.	.	.	.	.
.	.	4F#i	.	.	.	.	.
=67	=67	=67	=67	=67	=67	=67	=67
2GG	-di,	1G	-di,	1r	.	2d	pec-
2r	.	.	.	.	.	4.e	-ca-
.	.	.	.	.	.	8f	.
=68	=68	=68	=68	=68	=68	=68	=68
*	*	*	*edit	*	*	*	*
2G	pec-	4.B	pec-	1r	.	4.g	.
.	.	8c	.	.	.	8a	.
4D	.	4d	.	.	.	8bL	.
.	.	.	.	.	.	8gJ	.
[4C	-ca-	[4e	-ca-	.	.	[4cc	.
!!LO:LB:g=original
=69	=69	=69	=69	=69	=69	=69	=69
4C]	.	4e]	.	1r	.	8ccL]	.
.	.	.	.	.	.	8b	.
4F	.	4c	.	.	.	8a	.
.	.	.	.	.	.	8gJ	.
4D	.	[2d	-ta	.	.	4b	.
[4F	-ta	.	.	.	.	[4a	-ta
=70	=70	=70	=70	=70	=70	=70	=70
4F]	.	4d]	.	1r	.	4a]	.
*	*	*	*	*	*	*	*edit
4G	mun-	4B	.	.	.	2g	mun-
2D	-di,	2A	mun-	.	.	.	.
.	.	.	.	.	.	4f#i	.
=71	=71	=71	=71	=71	=71	=71	=71
4.GG	pec-	2G	-di,	1r	.	1g	-di,
8AA	.	.	.	.	.	.	.
4BB	.	4r	.	.	.	.	.
[4C	-ca-	4G	pec-	.	.	.	.
=72	=72	=72	=72	=72	=72	=72	=72
8CL]	.	2A	-ca-	1r	.	1r	.
8BB	.	.	.	.	.	.	.
8AA	.	.	.	.	.	.	.
8GGJ	.	.	.	.	.	.	.
2AA	.	2c	-ta	.	.	.	.
=73	=73	=73	=73	=73	=73	=73	=73
4GG	-ta,	4.B	mun-	1r	.	2r	.
2G	pec-	.	.	.	.	.	.
.	.	8G	.	.	.	.	.
.	.	4B	.	.	.	4r	.
4E	.	[4c	.	.	.	4g	pec-
=74	=74	=74	=74	=74	=74	=74	=74
2F	-ca-	8cL]	.	1r	.	2a	-ca-
.	.	8B	.	.	.	.	.
.	.	8A	.	.	.	.	.
.	.	8GJ	.	.	.	.	.
2F	-ta	2A	.	.	.	2cc	-ta
=75	=75	=75	=75	=75	=75	=75	=75
*	*	*	*	*	*	*	*Xedit
*	*	*	*	*	*	*col	*
2.G	mun-	2G	-di:	1r	.	4.b	mun-
.	.	.	.	.	.	8g	.
*	*	*	*	*	*	*Xcol	*
.	.	2r	.	.	.	4b	.
[4A	.	.	.	.	.	[4cc	.
!!LO:LB:g=original
=76	=76	=76	=76	=76	=76	=76	=76
8AL]	.	2r	.	1r	.	8ccL]	.
8G	.	.	.	.	.	8b	.
8F#i	.	.	.	.	.	8a	.
8EJ	.	.	.	.	.	8gJ	.
*	*	*	*Xedit	*	*	*	*
2F#i	.	2c	mi-	.	.	2a	.
=77	=77	=77	=77	=77	=77	=77	=77
1G	-di:	4B	-se-	1r	.	2g	-di:
.	.	4G	.	.	.	.	.
.	.	4B	.	.	.	2r	.
.	.	4c	.	.	.	.	.
=78	=78	=78	=78	=78	=78	=78	=78
1r	.	2A	-re-	1r	.	2cc	mi-
.	.	2G	-re,	.	.	4b	-se-
.	.	.	.	.	.	4g	.
=79	=79	=79	=79	=79	=79	=79	=79
1r	.	2r	.	1r	.	4b	.
.	.	.	.	.	.	4cc	.
*	*	*	*edit	*	*	*	*
.	.	2d	mi-	.	.	2a	-re-
=80	=80	=80	=80	=80	=80	=80	=80
1r	.	4e	.	1r	.	4g	.
.	.	2d	-se-	.	.	2f	-re
*	*	*	*	*	*	*	*edit
.	.	4B	-re-	.	.	4d	no-
=81	=81	=81	=81	=81	=81	=81	=81
1r	.	4c	.	1r	.	4e	.
.	.	2d	-re	.	.	4f	.
.	.	.	.	.	.	2d	-bis,
.	.	4D	no-	.	.	.	.
=82	=82	=82	=82	=82	=82	=82	=82
1r	.	4E	.	1r	.	4r	.
.	.	4F	.	.	.	2a	mi-
.	.	4D	-bis,	.	.	.	.
.	.	[4A	mi-	.	.	8gL	.
.	.	.	.	.	.	8fJ	.
!!LO:PB:g=original
=83	=83	=83	=83	=83	=83	=83	=83
1r	.	4A]	.	1r	.	4.e	-se-
.	.	8GL	.	.	.	.	.
.	.	8FJ	.	.	.	8f	.
.	.	4.E	-se-	.	.	4.g	-re-
.	.	8F	.	.	.	8f	.
=84	=84	=84	=84	=84	=84	=84	=84
1r	.	4.G	-re-	1r	.	2d	-re,
.	.	8F	.	.	.	.	.
.	.	2D	-re,	.	.	2r	.
=85	=85	=85	=85	=85	=85	=85	=85
4.A	mi-	4r	.	1r	.	1r	.
.	.	4D	mi-	.	.	.	.
8G	.	.	.	.	.	.	.
4.E	-se-	4.G	-se-	.	.	.	.
8F	.	8A	.	.	.	.	.
=86	=86	=86	=86	=86	=86	=86	=86
4.G	-re-	8BL	.	1r	.	4.g	mi-
.	.	8cJ	.	.	.	.	.
.	.	4.d	-re-	.	.	.	.
8F	.	.	.	.	.	8a	.
4D	.	.	.	.	.	4b	.
.	.	8c	.	.	.	.	.
4C	.	4A	-re	.	.	4cc	-se-
=87	=87	=87	=87	=87	=87	=87	=87
4D	.	4B	.	1r	.	4b	.
*	*	*	*Xedit	*	*	*	*
4BB	.	2G	no-	.	.	4.dd	-re-
2AA	-re	.	.	.	.	.	.
.	.	.	.	.	.	8cc	.
.	.	4F#i	.	.	.	4a	-re
=88	=88	=88	=88	=88	=88	=88	=88
*	*Xedit	*	*	*	*	*	*
*	*	*col	*	*	*	*	*
2GG	no-	4.G	.	1r	.	4b	.
*	*	*	*	*	*	*	*Xedit
.	.	.	.	.	.	2g	no-
.	.	8B	.	.	.	.	.
*	*	*Xcol	*	*	*	*	*
2D	.	2A	.	.	.	.	.
.	.	.	.	.	.	4f#i	.
=89	=89	=89	=89	=89	=89	=89	=89
1GGl	-bis.	1Gl	-bis.	1r	.	1gl	-bis.
!!LO:LB:g=original
=90||	=90||	=90||	=90||	=90||	=90||	=90||	=90||
*M3/2	*	*M3/2	*	*M3/2	*	*M3/2	*
*met(C|3)	*	*met(C|3)	*	*met(C|3)	*	*met(C|3)	*
*	*	*	*	*	*Xedit	*	*
!!LO:TX:a:t=[C |3]
1.GG	A-	1.r	.	1.G	A-	1.r	.
=91	=91	=91	=91	=91	=91	=91	=91
*lig	*	*	*	*	*	*	*
1.AA	.	1.r	.	2E	.	1.r	.
.	.	.	.	1F	.	.	.
=92	=92	=92	=92	=92	=92	=92	=92
1GG	.	1.G	A-	2G	-gnus	1g	A-
.	.	.	.	1d	De-	.	.
*Xlig	*	*	*	*	*	*	*
2BB	-gnus	.	.	.	.	2g	-gnus
=93	=93	=93	=93	=93	=93	=93	=93
*	*	*lig	*	*lig	*	*lig	*
2C	.	1.A	-gnus	2e	-i,	2e	De-
1D	.	.	.	1d	.	1f	.
*	*	*	*	*Xlig	*	*Xlig	*
=94	=94	=94	=94	=94	=94	=94	=94
*lig	*	*	*	*	*	*	*
*	*edit	*	*	*	*edit	*	*
*	*	*	*	*	*	*col	*
*	*	*	*	*lig	*	*	*
*	*	*	*	*col	*	*	*
*col	*	*	*	*	*	*	*
[1.E	De-	1G	.	1B	A-	1g	-i,
*	*	*Xlig	*	*	*	*	*
*	*	*	*	*	*	*	*edit
.	.	2B	.	[2G	.	[2g	A-
=95	=95	=95	=95	=95	=95	=95	=95
*	*	*lig	*	*	*	*	*
2E]	.	2c	De-	2G]	.	2g]	.
1D	.	1d	.	1F	.	1b	-gnus
*Xcol	*	*	*	*Xcol	*	*Xcol	*
*Xlig	*	*Xlig	*	*Xlig	*	*	*
=96	=96	=96	=96	=96	=96	=96	=96
*	*	*	*	*lig	*	*	*
1.C	-i,	1.e	-i,	2G	-gnus	2.cc	De-
.	.	.	.	2.c	.	.	.
.	.	.	.	.	.	4b	.
.	.	.	.	.	.	4a	.
*	*	*	*	*Xlig	*	*	*
.	.	.	.	4B	.	4g	.
!!LO:LB:g=original
=97	=97	=97	=97	=97	=97	=97	=97
*	*	*	*	*	*	*lig	*
*	*	*	*edit	*	*	*	*
2D	A-	1d	A-	1A	.	2f	.
1F	.	.	.	.	.	2.a	.
.	.	2c	-gnus	2A	De-	.	.
*	*	*	*	*	*	*Xlig	*
.	.	.	.	.	.	4g	.
=98	=98	=98	=98	=98	=98	=98	=98
*	*	*lig	*	*lig	*	*	*
2G	-gnus	2B	De-	2B	-i,	1g	.
*	*Xedit	*	*	*	*	*	*
1D	De-	1A	.	1d	.	.	.
.	.	.	.	.	.	2f#i	.
*	*	*Xlig	*	*Xlig	*	*	*
=99	=99	=99	=99	=99	=99	=99	=99
1.GG	-i,	1G	-i,	1.r	.	1.g	-i,
.	.	2r	.	.	.	.	.
=100	=100	=100	=100	=100	=100	=100	=100
1.r	.	1G	qui	1d	qui	2r	.
.	.	.	.	.	.	2r	.
*	*	*	*	*	*	*	*Xedit
.	.	2E	.	2e	tol-	2g	qui
=101	=101	=101	=101	=101	=101	=101	=101
*	*	*lig	*	*	*	*	*
1.r	.	2D	tol-	1f	-lis	1a	tol-
.	.	2F	.	.	.	.	.
*	*	*Xlig	*	*	*	*	*
.	.	2C	.	2e	pec-	2g	.
=102	=102	=102	=102	=102	=102	=102	=102
*	*	*lig	*	*	*	*	*
1.r	.	2D	.	1d	-ca-	2f	.
.	.	1A	-lis,	.	.	1e	.
.	.	.	.	2c#i	.	.	.
*	*	*Xlig	*	*	*	*	*
=103	=103	=103	=103	=103	=103	=103	=103
*	*	*	*	*	*	*lig	*
*	*edit	*	*	*	*	*	*
1D	qui	1.r	.	2d	-ta,	2d	-lis
.	.	.	.	1A	qui	2.f	.
2C	.	.	.	.	.	.	.
*	*	*	*	*	*	*Xlig	*
.	.	.	.	.	.	4e	.
!!LO:LB:g=original
=104	=104	=104	=104	=104	=104	=104	=104
*	*	*	*	*	*	*	*edit
2D	tol-	1.r	.	2F	.	1d	pec-
1AA	-lis	.	.	1E	tol-	.	.
.	.	.	.	.	.	2c#i	.
=105	=105	=105	=105	=105	=105	=105	=105
1.r	.	1.r	.	1D	-lis	1d	-ca-
.	.	.	.	2D	pec-	2B	-ta
=106	=106	=106	=106	=106	=106	=106	=106
*	*	*	*	*lig	*	*	*
1.r	.	1.r	.	2E	-ca-	2c	mun-
.	.	.	.	2.F	.	1A	-di,
*	*	*	*	*Xlig	*	*	*
.	.	.	.	4G	.	.	.
=107	=107	=107	=107	=107	=107	=107	=107
1.r	.	1D	qui	2A	-ta	1.r	.
.	.	.	.	2d	mun-	.	.
.	.	2D	tol-	2B	.	.	.
=108	=108	=108	=108	=108	=108	=108	=108
*	*	*lig	*	*	*	*	*
1.r	.	2E	-lis	2c	.	1.r	.
.	.	2.F	.	1A	-di,	.	.
*	*	*Xlig	*	*	*	*	*
.	.	4G	.	.	.	.	.
=109	=109	=109	=109	=109	=109	=109	=109
*	*	*lig	*	*	*	*	*
1D	pec-	2A	pec-	1.r	.	1.r	.
.	.	2d	.	.	.	.	.
*	*	*Xlig	*	*	*	*	*
2D	-ca-	2B	.	.	.	.	.
=110	=110	=110	=110	=110	=110	=110	=110
2E	-ta	2c	-ca-	1.r	.	1.r	.
1F	.	1A	-ta	.	.	.	.
!!LO:PB:g=original
=111	=111	=111	=111	=111	=111	=111	=111
*	*	*lig	*	*	*	*	*
*	*	*	*	*	*	*	*Xedit
2G	mun-	2G	mun-	1.r	.	1d	pec-
2D	.	2.B	.	.	.	.	.
2BB	.	.	.	.	.	2d	-ca-
*	*	*Xlig	*	*	*	*	*
.	.	4A	.	.	.	.	.
=112	=112	=112	=112	=112	=112	=112	=112
*	*	*	*	*	*	*lig	*
2C	.	1G	.	1.r	.	2e	-ta
*col	*	*	*	*	*	*	*
1AA	.	.	.	.	.	2f	.
*Xcol	*	*	*	*	*	*	*
*	*	*	*	*	*	*Xlig	*
.	.	2F#i	.	.	.	2a	.
=113	=113	=113	=113	=113	=113	=113	=113
*	*	*	*	*	*Xedit	*	*edit
1.GG	-di,	1.G	-di,	2.d	pec-	1b	mun-
.	.	.	.	4c	.	.	.
.	.	.	.	4B	.	2g	-di,
.	.	.	.	4A	.	.	.
=114	=114	=114	=114	=114	=114	=114	=114
1.r	.	1d	mun-	2B	.	1.r	.
.	.	.	.	2G	-ca-	.	.
.	.	2B	.	2d	-ta	.	.
=115	=115	=115	=115	=115	=115	=115	=115
*	*	*	*	*	*edit	*	*
2r	.	2.c	.	1e	mun-	1.r	.
2r	.	.	.	.	.	.	.
.	.	4B	.	.	.	.	.
2D	pec-	2A	.	2d	.	.	.
=116	=116	=116	=116	=116	=116	=116	=116
1E	-ca-	1G	-di,	1B	-di,	2r	.
.	.	.	.	.	.	2r	.
2C	-ta	2r	.	2r	.	2g	pec-
=117	=117	=117	=117	=117	=117	=117	=117
1BB	mun-	2r	.	1.r	.	1dd	-ca-
.	.	2r	.	.	.	.	.
2GG	-di,	2d	pec-	.	.	2b	-ta
!!LO:LB:g=original
=118	=118	=118	=118	=118	=118	=118	=118
*	*	*	*	*	*	*	*Xedit
1.r	.	2.e	-ca-	1.r	.	2.cc	mun-
.	.	4d	.	.	.	4b	.
.	.	2c	-ta	.	.	2a	.
=119	=119	=119	=119	=119	=119	=119	=119
*	*	*lig	*	*	*	*lig	*
*	*	*	*	*	*Xedit	*	*
1G	mun-	2B	mun-	2.d	mun-	2g	.
.	.	2.d	.	.	.	2b	.
*	*	*	*	*	*	*Xlig	*
.	.	.	.	4e	.	.	.
2F	.	.	.	2f	.	2a	.
*	*	*Xlig	*	*	*	*	*
.	.	4c	.	.	.	.	.
=120	=120	=120	=120	=120	=120	=120	=120
2G	.	2B	.	1.d	.	1g	.
1D	-di:	1A	.	.	.	.	.
.	.	.	.	.	.	2f#i	.
=121	=121	=121	=121	=121	=121	=121	=121
*	*Xedit	*	*	*	*	*	*
1GG	do-	1G	-di:	1B	-di:	1g	-di:
2AA	-na	2r	.	2r	.	2r	.
=122	=122	=122	=122	=122	=122	=122	=122
*	*edit	*	*	*	*	*	*
1BB	no-	1.r	.	1G	do-	1.r	.
2C	-bis	.	.	2A	-na	.	.
=123	=123	=123	=123	=123	=123	=123	=123
*lig	*	*	*	*	*	*	*
*	*	*	*	*	*edit	*	*
2BB	pa-	1.r	.	1B	no-	1.r	.
2GG	.	.	.	.	.	.	.
*Xlig	*	*	*	*	*	*	*
2AA	.	.	.	2c	-bis	.	.
=124	=124	=124	=124	=124	=124	=124	=124
1BB	.	1.r	.	2B	pa-	1.r	.
.	.	.	.	2G	.	.	.
2C	.	.	.	2A	.	.	.
!!LO:LB:g=original
=125	=125	=125	=125	=125	=125	=125	=125
*lig	*	*	*	*	*	*	*
*	*	*	*Xedit	*	*	*	*
2BB	.	1G	do-	1G	.	1.r	.
1AA	.	.	.	.	.	.	.
.	.	2A	-na	2F#i	.	.	.
=126	=126	=126	=126	=126	=126	=126	=126
1GG	-cem,	1B	no-	1G	-cem,	1g	do-
*Xlig	*	*	*	*	*	*	*
2r	.	2c	-bis	2r	.	2a	-na
=127	=127	=127	=127	=127	=127	=127	=127
*	*	*	*edit	*	*	*	*
1.r	.	2.B	pa-	2.d	do-	1b	no-
.	.	4G	.	4c	.	.	.
.	.	2A	.	2A	-na	2cc	-bis
=128	=128	=128	=128	=128	=128	=128	=128
*	*	*	*	*	*Xedit	*	*edit
1BB	no-	1B	-cem,	1D	no-	2.b	pa-
.	.	.	.	.	.	4g	.
2C	-bis	2r	.	2E	-bis	2a	.
=129	=129	=129	=129	=129	=129	=129	=129
*	*	*	*	*lig	*	*	*
*	*	*	*	*	*edit	*	*
2.BB	pa-	2r	.	2.D	pa-	1b	-cem,
.	.	2r	.	.	.	.	.
4GG	.	.	.	2G	.	.	.
2AA	.	2c	pa-	.	.	2r	.
*	*	*	*	*Xlig	*	*	*
.	.	.	.	4F#i	.	.	.
=130	=130	=130	=130	=130	=130	=130	=130
1GG	-cem,	2.B	.	2G	-cem,	2r	.
.	.	.	.	4r	.	2r	.
.	.	4G	.	2g	pa-	.	.
2r	.	2A	.	.	.	2cc	pa-
.	.	.	.	4f#i	.	.	.
=131	=131	=131	=131	=131	=131	=131	=131
1GG	do-	1G	-cem,	1g	-cem,	2.b	.
.	.	.	.	.	.	4g	.
2D	-na	2r	.	2f	do-	2a	.
!!LO:LB:g=original
=132	=132	=132	=132	=132	=132	=132	=132
*	*Xedit	*	*	*	*	*	*
1E	no-	1G	do-	2.e	-na	1g	-cem,
.	.	.	.	4d	.	.	.
2F	-bis	2A	-na	2c	.	2r	.
=133	=133	=133	=133	=133	=133	=133	=133
*	*edit	*	*	*	*	*	*
1G	pa-	1B	no-	4B	no-	1g	do-
.	.	.	.	2d	.	.	.
.	.	.	.	4c	.	.	.
2F	.	2c	-bis	2A	-bis	2a	-na
=134	=134	=134	=134	=134	=134	=134	=134
*	*	*	*Xedit	*	*	*	*
1G	-cem,	2.B	pa-	4G	.	1b	no-
.	.	.	.	2d	pa-	.	.
.	.	4G	.	4e	.	.	.
2r	.	2A	.	2f	.	2cc	-bis
=135	=135	=135	=135	=135	=135	=135	=135
*	*	*	*	*	*	*lig	*
*	*	*	*edit	*	*	*	*Xedit
2G	do-	2G	-cem,	2g	.	2b	pa-
2D	.	1d	pa-	1f	-cem,	2.a	.
2F	.	.	.	.	.	.	.
*	*	*	*	*	*	*Xlig	*
.	.	.	.	.	.	4g	.
=136	=136	=136	=136	=136	=136	=136	=136
2G	.	2B	.	1d	do-	1g	.
1D	-na	1A	.	.	.	.	.
.	.	.	.	2d	-na	2f#i	.
*	*	*	*Xedit	*	*	*	*
=137	=137	=137	=137	=137	=137	=137	=137
2.GG	no-	[1.Gl	-cem.	2.B	no-	[1.gl	-cem.
4AA	.	.	.	4c	.	.	.
2BB	-bis	.	.	2d	-bis	.	.
=138	=138	=138	=138	=138	=138	=138	=138
*	*Xedit	*	*	*	*Xedit	*	*
1C	pa-	1.G_	.	1e	pa-	1.g_	.
2BB	.	.	.	2d	.	.	.
=139	=139	=139	=139	=139	=139	=139	=139
1GGl	-cem.	1G]	.	1dl	-cem.	1g]	.
==	==	==	==	==	==	==	==
*-	*-	*-	*-	*-	*-	*-	*-
!!!system-decoration: [*]
!!!RDF**kern: j = editorial accidental, optional, paren up
!!!RDF**kern: i = editorial accidental
!!!RDF**kern: l = terminal breve
!!!PTL: Gaspar van Weerbeke: Collected Works. II. Masses, Part 2
!!!ISBN: 978-1-59551-518-6
!!!PPR: American Institute of Musicology
!!!PC#: Corpus Mensurabilis Musicae 106/II.2
!!!PDT: 2018
!!!PED: Kolb, Paul
!!!YEC: Copyright 2016, Kolb, Paul
!!!YEM: CC-BY-NC 4.0 (https://creativecommons.org/licenses/by-nc/4.0/legalcode)
!!!EED: Zybina, Karina
!!!EEV: 2021/11/16
!!!title: @{OPR} &mdash; @{OTL}
!!!muse2ps: C^@{COM}^i2I150v90,90,90,120c122z18l2700t130
